packages/tools/karos-video/engine/hlg709_N.cube
TITLE "HLG->BT709 natural"
LUT_3D_SIZE 9
0.000000 0.000000 0.000000
0.069884 0.000000 0.000000
0.148759 0.000000 0.000000
0.231200 0.000000 0.000000
0.315748 0.000000 0.000000
0.423244 0.000000 0.000000
0.585867 0.000000 0.000000
0.820529 0.000000 0.000000
1.000000 0.000000 0.000000
0.000000 0.062629 0.000000
0.062456 0.060563 0.000000
0.148656 0.047367 0.000000
0.232101 0.000000 0.000000
0.316563 0.000000 0.000000
0.423807 0.000000 0.000000
0.586046 0.000000 0.000000
0.820225 0.000000 0.000000
1.000000 0.000000 0.000000
0.000000 0.133124 0.000000
0.000000 0.132517 0.000000
0.132625 0.128604 0.000000
0.226661 0.119112 0.000000
0.314631 0.100253 0.000000
0.423409 0.035698 0.000000
0.585778 0.000000 0.000000
0.818989 0.000000 0.000000
1.000000 0.000000 0.000000
0.000000 0.206311 0.000000
0.000000 0.205877 0.000000
0.063649 0.204041 0.000000
0.205129 0.198911 0.000000
0.303544 0.190039 0.000000
0.417324 0.171274 0.000000
0.582328 0.112419 0.000000
0.815988 0.000000 0.000000
1.000000 0.000000 0.000000
0.000000 0.280503 0.000000
0.000000 0.280126 0.000000
0.000000 0.278878 0.000000
0.153050 0.275589 0.000000
0.278047 0.269618 0.000000
0.402746 0.257928 0.000000
0.573525 0.227957 0.000000
0.809231 0.128447 0.000000
1.000000 0.000000 0.000000
0.000000 0.373028 0.000000
0.000000 0.372671 0.000000
0.000000 0.371544 0.000000
0.000000 0.369497 0.000000
0.212574 0.365086 0.000000
0.367829 0.356679 0.000000
0.552851 0.336861 0.000000
0.794354 0.285968 0.000000
1.000000 0.110365 0.000000
0.000000 0.507878 0.000000
0.000000 0.507511 0.000000
0.000000 0.506391 0.000000
0.000000 0.504457 0.000000
0.000000 0.501620 0.000000
0.258718 0.495248 0.000000
0.495703 0.480677 0.000000
0.756406 0.447295 0.000000
1.000000 0.368415 0.000000
0.000000 0.689022 0.000000
0.000000 0.688634 0.000000
0.000000 0.687465 0.000000
0.000000 0.685497 0.000000
0.000000 0.682703 0.000000
0.000000 0.677992 0.000000
0.323143 0.666584 0.000000
0.661091 0.641052 0.000000
1.000000 0.585949 0.000000
0.000000 0.908863 0.000000
0.000000 0.908485 0.000000
0.000000 0.907351 0.000000
0.000000 0.905461 0.000000
0.000000 0.902813 0.000000
0.000000 0.898431 0.000000
0.000000 0.889610 0.000000
0.403040 0.869906 0.000000
0.853947 0.828062 0.000000
0.000000 0.000000 0.051317
0.069603 0.000000 0.058631
0.148675 0.000000 0.061170
0.231147 0.000000 0.056659
0.315703 0.000000 0.042177
0.423200 0.000000 0.000000
0.585817 0.000000 0.000000
0.820455 0.000000 0.000000
1.000000 0.000000 0.000000
0.000000 0.062712 0.059721
0.060511 0.060508 0.060505
0.148214 0.046936 0.059550
0.231918 0.000000 0.054225
0.316455 0.000000 0.036652
0.423734 0.000000 0.000000
0.585984 0.000000 0.000000
0.820146 0.000000 0.000000
1.000000 0.000000 0.000000
0.000000 0.133199 0.046519
0.000000 0.132565 0.046376
0.131649 0.128610 0.040918
0.226249 0.119045 0.023884
0.314403 0.100104 0.000000
0.423274 0.035022 0.000000
0.585684 0.000000 0.000000
0.818896 0.000000 0.000000
1.000000 0.000000 0.000000
0.000000 0.206386 0.000000
0.000000 0.205944 0.000000
0.060621 0.204103 0.000000
0.204492 0.198948 0.000000
0.303195 0.190046 0.000000
0.417113 0.171239 0.000000
0.582192 0.112283 0.000000
0.815875 0.000000 0.000000
1.000000 0.000000 0.000000
0.000000 0.280559 0.000000
0.000000 0.280179 0.000000
0.000000 0.278920 0.000000
0.151955 0.275627 0.000000
0.277553 0.269638 0.000000
0.402455 0.257923 0.000000
0.573344 0.227918 0.000000
0.809097 0.128311 0.000000
1.000000 0.000000 0.000000
0.000000 0.373056 0.000000
0.000000 0.372697 0.000000
0.000000 0.371565 0.000000
0.000000 0.369511 0.000000
0.211773 0.365099 0.000000
0.367434 0.356679 0.000000
0.552618 0.336841 0.000000
0.794194 0.285920 0.000000
1.000000 0.110148 0.000000
0.000000 0.507875 0.000000
0.000000 0.507507 0.000000
0.000000 0.506385 0.000000
0.000000 0.504449 0.000000
0.000000 0.501607 0.000000
0.258035 0.495236 0.000000
0.495393 0.480655 0.000000
0.756211 0.447260 0.000000
1.000000 0.368355 0.000000
0.000000 0.688991 0.000000
0.000000 0.688603 0.000000
0.000000 0.687433 0.000000
0.000000 0.685464 0.000000
0.000000 0.682669 0.000000
0.000000 0.677956 0.000000
0.322608 0.666550 0.000000
0.660852 0.641014 0.000000
1.000000 0.585907 0.000000
0.000000 0.908815 0.000000
0.000000 0.908438 0.000000
0.000000 0.907304 0.000000
0.000000 0.905413 0.000000
0.000000 0.902766 0.000000
0.000000 0.898383 0.000000
0.000000 0.889562 0.000000
0.402657 0.869862 0.000000
0.853773 0.828020 0.000000
0.000000 0.000000 0.109296
0.067188 0.000000 0.116403
0.148132 0.000000 0.124780
0.230873 0.000000 0.129206
0.315496 0.000000 0.129805
0.423006 0.000000 0.125288
0.585601 0.000000 0.105431
0.820190 0.000000 0.000000
1.000000 0.000000 0.000000
0.000000 0.062670 0.121312
0.053618 0.060127 0.123765
0.146700 0.045379 0.127796
0.231254 0.000000 0.130516
0.316057 0.000000 0.129920
0.423448 0.000000 0.124492
0.585728 0.000000 0.103517
0.819867 0.000000 0.000000
1.000000 0.000000 0.000000
0.000000 0.133272 0.126916
0.000000 0.132556 0.127710
0.128464 0.128457 0.128451
0.224881 0.118624 0.128074
0.313615 0.099315 0.126005
0.422777 0.031092 0.119988
0.585330 0.000000 0.097179
0.818580 0.000000 0.000000
1.000000 0.000000 0.000000
0.000000 0.206424 0.120214
0.000000 0.205955 0.120426
0.049048 0.204083 0.120563
0.202328 0.198822 0.117924
0.301987 0.189807 0.113353
0.416373 0.170845 0.103743
0.581722 0.111442 0.075076
0.815508 0.000000 0.000000
1.000000 0.000000 0.000000
0.000000 0.280582 0.097991
0.000000 0.280190 0.097896
0.000000 0.278901 0.097570
0.148304 0.275594 0.094033
0.275922 0.269552 0.085760
0.401493 0.257769 0.068200
0.572754 0.227659 0.000000
0.808679 0.127741 0.000000
1.000000 0.000000 0.000000
0.000000 0.373072 0.000000
0.000000 0.372708 0.000000
0.000000 0.371563 0.000000
0.000000 0.369489 0.000000
0.209234 0.365078 0.000000
0.366197 0.356626 0.000000
0.551897 0.336745 0.000000
0.793712 0.285776 0.000000
1.000000 0.109493 0.000000
0.000000 0.507865 0.000000
0.000000 0.507496 0.000000
0.000000 0.506368 0.000000
0.000000 0.504422 0.000000
0.000000 0.501568 0.000000
0.255972 0.495198 0.000000
0.494461 0.480590 0.000000
0.755624 0.447157 0.000000
1.000000 0.368174 0.000000
0.000000 0.688897 0.000000
0.000000 0.688508 0.000000
0.000000 0.687336 0.000000
0.000000 0.685364 0.000000
0.000000 0.682566 0.000000
0.000000 0.677848 0.000000
0.320997 0.666446 0.000000
0.660134 0.640898 0.000000
1.000000 0.585780 0.000000
0.000000 0.908673 0.000000
0.000000 0.908295 0.000000
0.000000 0.907161 0.000000
0.000000 0.905270 0.000000
0.000000 0.902623 0.000000
0.000000 0.898240 0.000000
0.000000 0.889420 0.000000
0.401503 0.869730 0.000000
0.853248 0.827893 0.000000
0.000000 0.000000 0.170061
0.059599 0.000000 0.176022
0.146470 0.000000 0.185948
0.230140 0.000000 0.193860
0.315022 0.000000 0.198853
0.422624 0.000000 0.201140
0.585214 0.000000 0.196711
0.819722 0.000000 0.172097
1.000000 0.000000 0.101845
0.000000 0.062017 0.181698
0.036898 0.059100 0.184766
0.143716 0.042399 0.190814
0.229946 0.000000 0.196609
0.315290 0.000000 0.200229
0.422918 0.000000 0.201536
0.585277 0.000000 0.196293
0.819374 0.000000 0.170945
1.000000 0.000000 0.098836
0.000000 0.133282 0.193439
0.000000 0.132443 0.194656
0.122742 0.128135 0.197112
0.222479 0.117875 0.199504
0.312234 0.097952 0.201141
0.421911 0.022628 0.201268
0.584712 0.000000 0.194744
0.818017 0.000000 0.167331
1.000000 0.000000 0.089020
0.000000 0.206449 0.196603
0.000000 0.205937 0.197122
0.000000 0.204021 0.198390
0.198601 0.198591 0.198581
0.299919 0.189381 0.198104
0.415099 0.170131 0.195935
0.580896 0.109818 0.188095
0.814847 0.000000 0.160794
1.000000 0.000000 0.068690
0.000000 0.280562 0.191122
0.000000 0.280151 0.191324
0.000000 0.278806 0.191880
0.141798 0.275472 0.191486
0.273086 0.269329 0.189431
0.399813 0.257407 0.185208
0.571703 0.227055 0.174209
0.807915 0.126217 0.143267
1.000000 0.000000 0.000000
0.000000 0.372986 0.170808
0.000000 0.372613 0.170800
0.000000 0.371442 0.170756
0.000000 0.369328 0.170624
0.204643 0.364908 0.167428
0.363968 0.356383 0.160594
0.550578 0.336383 0.144443
0.792813 0.285220 0.098368
1.000000 0.107695 0.000000
0.000000 0.507706 0.089308
0.000000 0.507334 0.088985
0.000000 0.506197 0.088002
0.000000 0.504238 0.086319
0.000000 0.501367 0.083864
0.252192 0.495003 0.066417
0.492782 0.480357 0.000000
0.754586 0.446878 0.000000
1.000000 0.367813 0.000000
0.000000 0.688734 0.000000
0.000000 0.688344 0.000000
0.000000 0.687171 0.000000
0.000000 0.685197 0.000000
0.000000 0.682394 0.000000
0.000000 0.677668 0.000000
0.318291 0.666273 0.000000
0.658934 0.640706 0.000000
1.000000 0.585570 0.000000
0.000000 0.908434 0.000000
0.000000 0.908056 0.000000
0.000000 0.906923 0.000000
0.000000 0.905032 0.000000
0.000000 0.902384 0.000000
0.000000 0.898002 0.000000
0.000000 0.889182 0.000000
0.399573 0.869510 0.000000
0.852374 0.827683 0.000000
0.000000 0.000000 0.232671
0.040849 0.000000 0.237671
0.142907 0.000000 0.247586
0.228616 0.000000 0.257146
0.314114 0.000000 0.264597
0.421968 0.000000 0.270560
0.584622 0.000000 0.272789
0.819047 0.000000 0.262342
1.000000 0.000000 0.230793
0.000000 0.060252 0.243164
0.000000 0.056948 0.246364
0.138665 0.037280 0.253258
0.227737 0.000000 0.260714
0.314014 0.000000 0.266717
0.422070 0.000000 0.271595
0.584598 0.000000 0.272934
0.818664 0.000000 0.261833
1.000000 0.000000 0.229700
0.000000 0.133093 0.257630
0.000000 0.132105 0.259107
0.113749 0.127558 0.262563
0.218868 0.116732 0.266529
0.310166 0.095944 0.270199
0.420621 0.000000 0.273397
0.583809 0.000000 0.273044
0.817212 0.000000 0.260193
1.000000 0.000000 0.226351
0.000000 0.206411 0.265881
0.000000 0.205843 0.266597
0.000000 0.203877 0.268543
0.193125 0.198225 0.270122
0.296924 0.188751 0.271503
0.413259 0.169104 0.272283
0.579712 0.107479 0.270275
0.813909 0.000000 0.257114
1.000000 0.000000 0.220536
0.000000 0.280501 0.267122
0.000000 0.280063 0.267473
0.000000 0.278644 0.268458
0.131942 0.275276 0.269203
0.269010 0.268997 0.268983
0.397416 0.256884 0.267806
0.570211 0.226198 0.263229
0.806834 0.124040 0.248384
1.000000 0.000000 0.211905
0.000000 0.372850 0.258975
0.000000 0.372464 0.259090
0.000000 0.371258 0.259411
0.000000 0.369090 0.259867
0.197969 0.364660 0.258716
0.360804 0.356034 0.255680
0.548715 0.335872 0.248268
0.791545 0.284431 0.229350
1.000000 0.104640 0.189822
0.000000 0.507453 0.224888
0.000000 0.507076 0.224828
0.000000 0.505925 0.224643
0.000000 0.503943 0.224312
0.000000 0.501044 0.223803
0.246669 0.494679 0.219502
0.490351 0.479960 0.207933
0.753069 0.446372 0.180827
1.000000 0.367065 0.113290
0.000000 0.688355 0.076566
0.000000 0.687964 0.076139
0.000000 0.686787 0.074840
0.000000 0.684806 0.072614
0.000000 0.681996 0.069355
0.000000 0.677261 0.063530
0.314097 0.665883 0.000000
0.657122 0.640302 0.000000
1.000000 0.585171 0.000000
0.000000 0.908101 0.000000
0.000000 0.907723 0.000000
0.000000 0.906589 0.000000
0.000000 0.904699 0.000000
0.000000 0.902051 0.000000
0.000000 0.897668 0.000000
0.000000 0.888850 0.000000
0.396855 0.869202 0.000000
0.851149 0.827388 0.000000
0.000000 0.000000 0.312915
0.000000 0.000000 0.317009
0.134510 0.000000 0.326193
0.225046 0.000000 0.336421
0.312064 0.000000 0.345536
0.420602 0.000000 0.354298
0.583517 0.000000 0.361502
0.817880 0.000000 0.359834
1.000000 0.000000 0.342364
0.000000 0.055730 0.321942
0.000000 0.051383 0.324962
0.128187 0.024669 0.332102
0.223238 0.000000 0.340501
0.311441 0.000000 0.348220
0.420418 0.000000 0.355842
0.583359 0.000000 0.362063
0.817442 0.000000 0.359679
1.000000 0.000000 0.341698
0.000000 0.132356 0.337472
0.000000 0.131164 0.339114
0.095551 0.126318 0.343281
0.212273 0.114613 0.348416
0.306418 0.092355 0.353664
0.418300 0.000000 0.359256
0.582218 0.000000 0.363377
0.815840 0.000000 0.359089
1.000000 0.000000 0.339655
0.000000 0.206179 0.349343
0.000000 0.205528 0.350223
0.000000 0.203374 0.352673
0.183346 0.197515 0.355395
0.291711 0.187627 0.358198
0.410077 0.167335 0.361164
0.577678 0.103432 0.363142
0.812322 0.000000 0.357738
1.000000 0.000000 0.336110
0.000000 0.280317 0.355429
0.000000 0.279839 0.355905
0.000000 0.278306 0.357255
0.113074 0.274895 0.358866
0.261989 0.268400 0.359923
0.393338 0.255984 0.360765
0.567685 0.224751 0.360034
0.805019 0.120326 0.352739
1.000000 0.000000 0.330884
0.000000 0.372586 0.354816
0.000000 0.372181 0.355020
0.000000 0.370919 0.355603
0.000000 0.368664 0.356476
0.186217 0.364222 0.356493
0.355453 0.355435 0.355418
0.545589 0.335010 0.351937
0.789426 0.283115 0.341349
1.000000 0.099336 0.318163
0.000000 0.507017 0.337356
0.000000 0.506633 0.337364
0.000000 0.505459 0.337377
0.000000 0.503442 0.337368
0.000000 0.500496 0.337295
0.237175 0.494133 0.335120
0.486287 0.479296 0.328699
0.750545 0.445531 0.313950
1.000000 0.365823 0.283146
0.000000 0.687724 0.274686
0.000000 0.687331 0.274579
0.000000 0.686147 0.274256
0.000000 0.684155 0.273712
0.000000 0.681332 0.272937
0.000000 0.676576 0.271626
0.306955 0.665213 0.264364
0.654061 0.639579 0.243547
1.000000 0.584385 0.194897
0.000000 0.907395 0.000000
0.000000 0.907017 0.000000
0.000000 0.905884 0.000000
0.000000 0.903995 0.000000
0.000000 0.901348 0.000000
0.000000 0.896969 0.000000
0.000000 0.888157 0.000000
0.391971 0.868560 0.000000
0.849013 0.826788 0.000000
0.000000 0.000000 0.436317
0.000000 0.000000 0.439441
0.108666 0.000000 0.447303
0.214715 0.000000 0.457139
0.306233 0.000000 0.467037
0.416931 0.000000 0.477868
0.580862 0.000000 0.489294
0.815358 0.000000 0.494798
1.000000 0.000000 0.486617
0.000000 0.040517 0.443552
0.000000 0.032333 0.446152
0.097487 0.000000 0.452858
0.211443 0.000000 0.461356
0.304768 0.000000 0.470085
0.416261 0.000000 0.479832
0.580461 0.000000 0.490221
0.814816 0.000000 0.494920
1.000000 0.000000 0.486187
0.000000 0.129662 0.458471
0.000000 0.128145 0.460147
0.000000 0.122937 0.464700
0.196636 0.109559 0.470584
0.297743 0.084026 0.477026
0.412982 0.000000 0.484624
0.578682 0.000000 0.492594
0.812928 0.000000 0.495137
1.000000 0.000000 0.484855
0.000000 0.205176 0.472670
0.000000 0.204385 0.473676
0.000000 0.201843 0.476505
0.160382 0.195739 0.480219
0.280251 0.185081 0.484233
0.403182 0.163521 0.489093
0.573324 0.094505 0.494481
0.809005 0.000000 0.495070
1.000000 0.000000 0.482499
0.000000 0.279673 0.482688
0.000000 0.279123 0.483280
0.000000 0.277386 0.484967
0.050349 0.273927 0.487368
0.246717 0.267033 0.489521
0.384714 0.254040 0.492072
0.562399 0.221733 0.494461
0.801268 0.112364 0.492630
1.000000 0.000000 0.478953
0.000000 0.371917 0.488165
0.000000 0.371477 0.488452
0.000000 0.370110 0.489276
0.000000 0.367695 0.490532
0.159049 0.363245 0.491508
0.344234 0.354154 0.491929
0.539140 0.333220 0.491270
0.785090 0.280423 0.485913
1.000000 0.087488 0.470440
0.000000 0.506086 0.481949
0.000000 0.505686 0.482002
0.000000 0.504469 0.482150
0.000000 0.502383 0.482357
0.000000 0.499348 0.482568
0.216483 0.492996 0.481643
0.477954 0.477931 0.477907
0.745417 0.443820 0.468563
1.000000 0.363310 0.447707
0.000000 0.686438 0.444881
0.000000 0.686041 0.444801
0.000000 0.684844 0.444560
0.000000 0.682832 0.444150
0.000000 0.679982 0.443558
0.000000 0.675185 0.442537
0.291970 0.663854 0.438032
0.647857 0.638118 0.425379
0.998525 0.582803 0.398450
0.000000 0.905937 0.338427
0.000000 0.905560 0.338308
0.000000 0.904426 0.337951
0.000000 0.902536 0.337357
0.000000 0.899890 0.336524
0.000000 0.895511 0.335147
0.000000 0.886701 0.332379
0.381712 0.867182 0.320863
0.844573 0.825445 0.288037
0.000000 0.000000 0.620815
0.000000 0.000000 0.623059
0.000000 0.000000 0.629217
0.183115 0.000000 0.637538
0.289113 0.000000 0.646782
0.406528 0.000000 0.658019
0.574013 0.000000 0.671717
0.809635 0.000000 0.682003
1.000000 0.000000 0.679405
0.000000 0.000000 0.626209
0.000000 0.000000 0.628230
0.000000 0.000000 0.633790
0.177185 0.000000 0.641333
0.286381 0.000000 0.649771
0.405110 0.000000 0.660137
0.573210 0.000000 0.672872
0.808911 0.000000 0.682308
1.000000 0.000000 0.679101
0.000000 0.120719 0.638770
0.000000 0.118665 0.640275
0.000000 0.112024 0.644501
0.153396 0.096241 0.650427
0.276047 0.060767 0.657129
0.399995 0.000000 0.665619
0.570357 0.000000 0.675918
0.806516 0.000000 0.683060
1.000000 0.000000 0.678141
0.000000 0.201498 0.652934
0.000000 0.200491 0.653950
0.000000 0.197331 0.656840
0.087292 0.191001 0.661048
0.253019 0.178942 0.665669
0.387429 0.154835 0.671637
0.563594 0.071783 0.679253
0.801864 0.000000 0.683827
1.000000 0.000000 0.676390
0.000000 0.277458 0.664893
0.000000 0.276789 0.665542
0.000000 0.274714 0.667402
0.000000 0.271029 0.670241
0.210233 0.263694 0.673173
0.365654 0.249647 0.676844
0.550984 0.215240 0.681329
0.793344 0.093687 0.683043
1.000000 0.000000 0.673664
0.000000 0.370088 0.674290
0.000000 0.369584 0.674630
0.000000 0.368037 0.675611
0.000000 0.365340 0.677115
0.067127 0.360933 0.678788
0.319641 0.351289 0.680203
0.525524 0.329407 0.681375
0.776082 0.274834 0.679160
1.000000 0.054451 0.667267
0.000000 0.504003 0.675338
0.000000 0.503576 0.675418
0.000000 0.502280 0.675641
0.000000 0.500069 0.675964
0.000000 0.496871 0.676321
0.165034 0.490568 0.676169
0.460523 0.475077 0.673897
0.734902 0.440311 0.667221
1.000000 0.358190 0.650150
0.000000 0.683788 0.651176
0.000000 0.683383 0.651095
0.000000 0.682163 0.650849
0.000000 0.680113 0.650429
0.000000 0.677213 0.649817
0.000000 0.672342 0.648751
0.258742 0.661086 0.645188
0.635190 0.635158 0.635126
0.990165 0.579614 0.613677
0.000000 0.903004 0.576720
0.000000 0.902626 0.576595
0.000000 0.901492 0.576220
0.000000 0.899602 0.575595
0.000000 0.896956 0.574720
0.000000 0.892579 0.573273
0.000000 0.883776 0.570367
0.360124 0.864416 0.561733
0.835604 0.822752 0.539823
0.000000 0.000000 0.890275
0.000000 0.000000 0.891744
0.000000 0.000000 0.895919
0.000000 0.000000 0.902148
0.235910 0.000000 0.909274
0.376310 0.000000 0.918644
0.555452 0.000000 0.931227
0.795926 0.000000 0.942135
1.000000 0.000000 0.940429
0.000000 0.000000 0.893885
0.000000 0.000000 0.895254
0.000000 0.000000 0.899151
0.000000 0.000000 0.905005
0.230837 0.000000 0.911677
0.373805 0.000000 0.920481
0.554058 0.000000 0.932324
0.794910 0.000000 0.942465
1.000000 0.000000 0.940144
0.000000 0.090208 0.902935
0.000000 0.086669 0.904073
0.000000 0.074666 0.907329
0.000000 0.045636 0.912276
0.213402 0.000000 0.917951
0.365748 0.000000 0.925398
0.549576 0.000000 0.935261
0.791700 0.000000 0.943293
1.000000 0.000000 0.939237
0.000000 0.189426 0.914323
0.000000 0.188088 0.915170
0.000000 0.183943 0.917604
0.000000 0.176583 0.921334
0.173654 0.162998 0.925669
0.348429 0.132980 0.931265
0.540622 0.000000 0.938837
0.785857 0.000000 0.944189
1.000000 0.000000 0.937567
0.000000 0.270257 0.925128
0.000000 0.269413 0.925710
0.000000 0.266824 0.927386
0.000000 0.262327 0.929967
0.073450 0.255059 0.933054
0.319748 0.239138 0.936728
0.525124 0.200499 0.941489
0.776049 0.000000 0.944002
1.000000 0.000000 0.934938
0.000000 0.364844 0.934895
0.000000 0.364243 0.935215
0.000000 0.362410 0.936137
0.000000 0.359263 0.937554
0.000000 0.354670 0.939305
0.259370 0.344549 0.941053
0.495564 0.320976 0.942642
0.756906 0.262901 0.941186
1.000000 0.000000 0.929212
0.000000 0.499093 0.938418
0.000000 0.498621 0.938485
0.000000 0.497194 0.938668
0.000000 0.494773 0.938923
0.000000 0.491301 0.939179
0.000000 0.485185 0.939293
0.422443 0.468953 0.937365
0.712970 0.432999 0.931230
1.000000 0.347638 0.914109
0.000000 0.678236 0.919165
0.000000 0.677817 0.919059
0.000000 0.676556 0.918737
0.000000 0.674442 0.918188
0.000000 0.671456 0.917392
0.000000 0.666455 0.916015
0.169029 0.655391 0.912511
0.608912 0.629127 0.902760
0.973217 0.573170 0.881899
0.000000 0.897103 0.854317
0.000000 0.896726 0.854161
0.000000 0.895593 0.853693
0.000000 0.893704 0.852914
0.000000 0.891061 0.851824
0.000000 0.886689 0.850022
0.000000 0.877905 0.846410
0.311754 0.858874 0.837755
0.817405 0.817364 0.817323
