packages/tools/karos-video/engine/hlg709_N.cube
TITLE "HLG->BT709 natural"
LUT_3D_SIZE 33
0.000000 0.000000 0.000000
0.015405 0.000000 0.000000
0.032812 0.000000 0.000000
0.051064 0.000000 0.000000
0.069884 0.000000 0.000000
0.089135 0.000000 0.000000
0.108734 0.000000 0.000000
0.128623 0.000000 0.000000
0.148759 0.000000 0.000000
0.169109 0.000000 0.000000
0.189647 0.000000 0.000000
0.210350 0.000000 0.000000
0.231200 0.000000 0.000000
0.252179 0.000000 0.000000
0.273272 0.000000 0.000000
0.294466 0.000000 0.000000
0.315748 0.000000 0.000000
0.338342 0.000000 0.000000
0.363631 0.000000 0.000000
0.391849 0.000000 0.000000
0.423244 0.000000 0.000000
0.458073 0.000000 0.000000
0.496604 0.000000 0.000000
0.539111 0.000000 0.000000
0.585867 0.000000 0.000000
0.637144 0.000000 0.000000
0.693198 0.000000 0.000000
0.754262 0.000000 0.000000
0.820529 0.000000 0.000000
0.892135 0.000000 0.000000
0.969147 0.000000 0.000000
1.000000 0.000000 0.000000
1.000000 0.000000 0.000000
0.000000 0.013810 0.000000
0.013775 0.013357 0.000000
0.032811 0.010455 0.000000
0.051301 0.000000 0.000000
0.070122 0.000000 0.000000
0.089351 0.000000 0.000000
0.108926 0.000000 0.000000
0.128794 0.000000 0.000000
0.148912 0.000000 0.000000
0.169247 0.000000 0.000000
0.189772 0.000000 0.000000
0.210464 0.000000 0.000000
0.231304 0.000000 0.000000
0.252274 0.000000 0.000000
0.273359 0.000000 0.000000
0.294545 0.000000 0.000000
0.315821 0.000000 0.000000
0.338409 0.000000 0.000000
0.363691 0.000000 0.000000
0.391902 0.000000 0.000000
0.423290 0.000000 0.000000
0.458112 0.000000 0.000000
0.496635 0.000000 0.000000
0.539134 0.000000 0.000000
0.585883 0.000000 0.000000
0.637152 0.000000 0.000000
0.693198 0.000000 0.000000
0.754253 0.000000 0.000000
0.820511 0.000000 0.000000
0.892110 0.000000 0.000000
0.969113 0.000000 0.000000
1.000000 0.000000 0.000000
1.000000 0.000000 0.000000
0.000000 0.029414 0.000000
0.000000 0.029288 0.000000
0.029338 0.028449 0.000000
0.050220 0.026391 0.000000
0.069874 0.022265 0.000000
0.089466 0.013187 0.000000
0.109226 0.000000 0.000000
0.129125 0.000000 0.000000
0.149245 0.000000 0.000000
0.169570 0.000000 0.000000
0.190079 0.000000 0.000000
0.210753 0.000000 0.000000
0.231573 0.000000 0.000000
0.252525 0.000000 0.000000
0.273592 0.000000 0.000000
0.294761 0.000000 0.000000
0.316021 0.000000 0.000000
0.338592 0.000000 0.000000
0.363856 0.000000 0.000000
0.392049 0.000000 0.000000
0.423418 0.000000 0.000000
0.458220 0.000000 0.000000
0.496722 0.000000 0.000000
0.539199 0.000000 0.000000
0.585926 0.000000 0.000000
0.637172 0.000000 0.000000
0.693194 0.000000 0.000000
0.754225 0.000000 0.000000
0.820458 0.000000 0.000000
0.892031 0.000000 0.000000
0.969009 0.000000 0.000000
1.000000 0.000000 0.000000
1.000000 0.000000 0.000000
0.000000 0.045770 0.000000
0.000000 0.045689 0.000000
0.014140 0.045328 0.000000
0.045650 0.044266 0.000000
0.067721 0.042398 0.000000
0.088384 0.039377 0.000000
0.108696 0.034634 0.000000
0.128976 0.026853 0.000000
0.149341 0.007205 0.000000
0.169833 0.000000 0.000000
0.190383 0.000000 0.000000
0.211072 0.000000 0.000000
0.231894 0.000000 0.000000
0.252840 0.000000 0.000000
0.273896 0.000000 0.000000
0.295051 0.000000 0.000000
0.316294 0.000000 0.000000
0.338848 0.000000 0.000000
0.364091 0.000000 0.000000
0.392261 0.000000 0.000000
0.423603 0.000000 0.000000
0.458377 0.000000 0.000000
0.496849 0.000000 0.000000
0.539294 0.000000 0.000000
0.585986 0.000000 0.000000
0.637195 0.000000 0.000000
0.693180 0.000000 0.000000
0.754172 0.000000 0.000000
0.820365 0.000000 0.000000
0.891897 0.000000 0.000000
0.968834 0.000000 0.000000
1.000000 0.000000 0.000000
1.000000 0.000000 0.000000
0.000000 0.062629 0.000000
0.000000 0.062568 0.000000
0.000000 0.062358 0.000000
0.034287 0.061739 0.000000
0.062456 0.060563 0.000000
0.085385 0.058769 0.000000
0.106882 0.056167 0.000000
0.127858 0.052502 0.000000
0.148656 0.047367 0.000000
0.169426 0.039972 0.000000
0.190238 0.028041 0.000000
0.211125 0.000000 0.000000
0.232101 0.000000 0.000000
0.253086 0.000000 0.000000
0.274159 0.000000 0.000000
0.295321 0.000000 0.000000
0.316563 0.000000 0.000000
0.339108 0.000000 0.000000
0.364339 0.000000 0.000000
0.392489 0.000000 0.000000
0.423807 0.000000 0.000000
0.458551 0.000000 0.000000
0.496990 0.000000 0.000000
0.539396 0.000000 0.000000
0.586046 0.000000 0.000000
0.637210 0.000000 0.000000
0.693145 0.000000 0.000000
0.754086 0.000000 0.000000
0.820225 0.000000 0.000000
0.891701 0.000000 0.000000
0.968582 0.000000 0.000000
1.000000 0.000000 0.000000
1.000000 0.000000 0.000000
0.000000 0.079862 0.000000
0.000000 0.079812 0.000000
0.000000 0.079650 0.000000
0.000000 0.079327 0.000000
0.052177 0.078473 0.000000
0.079629 0.077215 0.000000
0.103217 0.075453 0.000000
0.125405 0.073067 0.000000
0.146974 0.069908 0.000000
0.168259 0.065773 0.000000
0.189425 0.060358 0.000000
0.210561 0.053126 0.000000
0.231713 0.042901 0.000000
0.252906 0.025363 0.000000
0.274151 0.000000 0.000000
0.295454 0.000000 0.000000
0.316730 0.000000 0.000000
0.339292 0.000000 0.000000
0.364528 0.000000 0.000000
0.392675 0.000000 0.000000
0.423980 0.000000 0.000000
0.458702 0.000000 0.000000
0.497110 0.000000 0.000000
0.539478 0.000000 0.000000
0.586083 0.000000 0.000000
0.637196 0.000000 0.000000
0.693076 0.000000 0.000000
0.753955 0.000000 0.000000
0.820029 0.000000 0.000000
0.891438 0.000000 0.000000
0.968250 0.000000 0.000000
1.000000 0.000000 0.000000
1.000000 0.000000 0.000000
0.000000 0.097391 0.000000
0.000000 0.097349 0.000000
0.000000 0.097214 0.000000
0.000000 0.096962 0.000000
0.030080 0.096430 0.000000
0.069851 0.095464 0.000000
0.097086 0.094143 0.000000
0.121200 0.092394 0.000000
0.143968 0.090134 0.000000
0.166059 0.087265 0.000000
0.187791 0.083665 0.000000
0.209334 0.079168 0.000000
0.230784 0.073536 0.000000
0.252198 0.066380 0.000000
0.273609 0.056965 0.000000
0.295035 0.043488 0.000000
0.316486 0.015268 0.000000
0.339209 0.000000 0.000000
0.364583 0.000000 0.000000
0.392752 0.000000 0.000000
0.424065 0.000000 0.000000
0.458781 0.000000 0.000000
0.497171 0.000000 0.000000
0.539508 0.000000 0.000000
0.586072 0.000000 0.000000
0.637134 0.000000 0.000000
0.692953 0.000000 0.000000
0.753765 0.000000 0.000000
0.819767 0.000000 0.000000
0.891098 0.000000 0.000000
0.967830 0.000000 0.000000
1.000000 0.000000 0.000000
1.000000 0.000000 0.000000
0.000000 0.115160 0.000000
0.000000 0.115123 0.000000
0.000000 0.115006 0.000000
0.000000 0.114793 0.000000
0.000000 0.114461 0.000000
0.052944 0.113719 0.000000
0.087578 0.112662 0.000000
0.114766 0.111288 0.000000
0.139313 0.109540 0.000000
0.162571 0.107359 0.000000
0.185121 0.104675 0.000000
0.207258 0.101405 0.000000
0.229151 0.097445 0.000000
0.250899 0.092657 0.000000
0.272566 0.086849 0.000000
0.294188 0.079725 0.000000
0.315792 0.070781 0.000000
0.338639 0.058189 0.000000
0.364128 0.035387 0.000000
0.392497 0.000000 0.000000
0.423992 0.000000 0.000000
0.458737 0.000000 0.000000
0.497127 0.000000 0.000000
0.539449 0.000000 0.000000
0.585981 0.000000 0.000000
0.636997 0.000000 0.000000
0.692758 0.000000 0.000000
0.753501 0.000000 0.000000
0.819425 0.000000 0.000000
0.890672 0.000000 0.000000
0.967315 0.000000 0.000000
1.000000 0.000000 0.000000
1.000000 0.000000 0.000000
0.000000 0.133124 0.000000
0.000000 0.133091 0.000000
0.000000 0.132986 0.000000
0.000000 0.132801 0.000000
0.000000 0.132517 0.000000
0.000000 0.132043 0.000000
0.072840 0.131160 0.000000
0.105415 0.130026 0.000000
0.132625 0.128604 0.000000
0.157531 0.126852 0.000000
0.181208 0.124721 0.000000
0.204160 0.122162 0.000000
0.226661 0.119112 0.000000
0.248875 0.115501 0.000000
0.270901 0.111238 0.000000
0.292806 0.106209 0.000000
0.314631 0.100253 0.000000
0.337662 0.092686 0.000000
0.363310 0.082156 0.000000
0.391809 0.066318 0.000000
0.423409 0.035698 0.000000
0.458369 0.000000 0.000000
0.496936 0.000000 0.000000
0.539262 0.000000 0.000000
0.585778 0.000000 0.000000
0.636759 0.000000 0.000000
0.692468 0.000000 0.000000
0.753145 0.000000 0.000000
0.818989 0.000000 0.000000
0.890147 0.000000 0.000000
0.966695 0.000000 0.000000
1.000000 0.000000 0.000000
1.000000 0.000000 0.000000
0.000000 0.151249 0.000000
0.000000 0.151219 0.000000
0.000000 0.151124 0.000000
0.000000 0.150957 0.000000
0.000000 0.150707 0.000000
0.000000 0.150356 0.000000
0.046694 0.149690 0.000000
0.091898 0.148722 0.000000
0.123363 0.147521 0.000000
0.150622 0.146056 0.000000
0.175831 0.144293 0.000000
0.199867 0.142194 0.000000
0.223172 0.139721 0.000000
0.245998 0.136826 0.000000
0.268503 0.133457 0.000000
0.290785 0.129550 0.000000
0.312911 0.125029 0.000000
0.336195 0.119467 0.000000
0.362065 0.112121 0.000000
0.390753 0.102138 0.000000
0.422507 0.087865 0.000000
0.457589 0.064951 0.000000
0.496270 0.000000 0.000000
0.538833 0.000000 0.000000
0.585430 0.000000 0.000000
0.636392 0.000000 0.000000
0.692060 0.000000 0.000000
0.752676 0.000000 0.000000
0.818444 0.000000 0.000000
0.889513 0.000000 0.000000
0.965961 0.000000 0.000000
1.000000 0.000000 0.000000
1.000000 0.000000 0.000000
0.000000 0.169506 0.000000
0.000000 0.169477 0.000000
0.000000 0.169389 0.000000
0.000000 0.169237 0.000000
0.000000 0.169010 0.000000
0.000000 0.168697 0.000000
0.000000 0.168269 0.000000
0.071177 0.167420 0.000000
0.110625 0.166377 0.000000
0.141407 0.165116 0.000000
0.168724 0.163610 0.000000
0.194190 0.161832 0.000000
0.218534 0.159752 0.000000
0.242148 0.157339 0.000000
0.265264 0.154555 0.000000
0.288030 0.151361 0.000000
0.310544 0.147710 0.000000
0.334159 0.143287 0.000000
0.360321 0.137575 0.000000
0.389262 0.130079 0.000000
0.421229 0.120005 0.000000
0.456483 0.105912 0.000000
0.495297 0.084517 0.000000
0.537955 0.041216 0.000000
0.584741 0.000000 0.000000
0.635867 0.000000 0.000000
0.691509 0.000000 0.000000
0.752076 0.000000 0.000000
0.817773 0.000000 0.000000
0.888755 0.000000 0.000000
0.965104 0.000000 0.000000
1.000000 0.000000 0.000000
1.000000 0.000000 0.000000
0.000000 0.187868 0.000000
0.000000 0.187841 0.000000
0.000000 0.187758 0.000000
0.000000 0.187616 0.000000
0.000000 0.187407 0.000000
0.000000 0.187122 0.000000
0.000000 0.186749 0.000000
0.025567 0.186139 0.000000
0.092565 0.185212 0.000000
0.129203 0.184100 0.000000
0.159527 0.182782 0.000000
0.186902 0.181237 0.000000
0.212585 0.179441 0.000000
0.237194 0.177371 0.000000
0.261077 0.174999 0.000000
0.284449 0.172297 0.000000
0.307449 0.169232 0.000000
0.331478 0.165556 0.000000
0.358011 0.160866 0.000000
0.387276 0.154820 0.000000
0.419519 0.146909 0.000000
0.455001 0.136335 0.000000
0.493998 0.121695 0.000000
0.536793 0.099980 0.000000
0.583675 0.060615 0.000000
0.634928 0.000000 0.000000
0.690793 0.000000 0.000000
0.751324 0.000000 0.000000
0.816960 0.000000 0.000000
0.887860 0.000000 0.000000
0.964111 0.000000 0.000000
1.000000 0.000000 0.000000
1.000000 0.000000 0.000000
0.000000 0.206311 0.000000
0.000000 0.206285 0.000000
0.000000 0.206207 0.000000
0.000000 0.206073 0.000000
0.000000 0.205877 0.000000
0.000000 0.205613 0.000000
0.000000 0.205270 0.000000
0.000000 0.204840 0.000000
0.063649 0.204041 0.000000
0.112761 0.203042 0.000000
0.147704 0.201866 0.000000
0.177702 0.200495 0.000000
0.205129 0.198911 0.000000
0.230995 0.197095 0.000000
0.255831 0.195026 0.000000
0.279947 0.192682 0.000000
0.303544 0.190039 0.000000
0.328082 0.186890 0.000000
0.355070 0.182905 0.000000
0.384735 0.177823 0.000000
0.417324 0.171274 0.000000
0.453097 0.162716 0.000000
0.492331 0.151302 0.000000
0.535311 0.135563 0.000000
0.582328 0.112419 0.000000
0.633671 0.071750 0.000000
0.689617 0.000000 0.000000
0.750399 0.000000 0.000000
0.815988 0.000000 0.000000
0.886814 0.000000 0.000000
0.962972 0.000000 0.000000
1.000000 0.000000 0.000000
1.000000 0.000000 0.000000
0.000000 0.224816 0.000000
0.000000 0.224791 0.000000
0.000000 0.224716 0.000000
0.000000 0.224587 0.000000
0.000000 0.224402 0.000000
0.000000 0.224153 0.000000
0.000000 0.223834 0.000000
0.000000 0.223435 0.000000
0.000000 0.222869 0.000000
0.089186 0.221957 0.000000
0.132353 0.220889 0.000000
0.166159 0.219652 0.000000
0.195910 0.218230 0.000000
0.223379 0.216608 0.000000
0.249398 0.214768 0.000000
0.274427 0.212695 0.000000
0.298746 0.210368 0.000000
0.323898 0.207609 0.000000
0.351436 0.204140 0.000000
0.381587 0.199748 0.000000
0.414596 0.194144 0.000000
0.450726 0.186920 0.000000
0.490256 0.177479 0.000000
0.533472 0.164888 0.000000
0.580668 0.147527 0.000000
0.632138 0.121983 0.000000
0.688162 0.076853 0.000000
0.748999 0.000000 0.000000
0.814840 0.000000 0.000000
0.885604 0.000000 0.000000
0.961677 0.000000 0.000000
1.000000 0.000000 0.000000
1.000000 0.000000 0.000000
0.000000 0.243361 0.000000
0.000000 0.243337 0.000000
0.000000 0.243264 0.000000
0.000000 0.243141 0.000000
0.000000 0.242963 0.000000
0.000000 0.242726 0.000000
0.000000 0.242424 0.000000
0.000000 0.242050 0.000000
0.000000 0.241597 0.000000
0.045979 0.240848 0.000000
0.111674 0.239866 0.000000
0.151588 0.238733 0.000000
0.184573 0.237438 0.000000
0.214128 0.235966 0.000000
0.241630 0.234305 0.000000
0.267775 0.232440 0.000000
0.292967 0.230357 0.000000
0.318855 0.227897 0.000000
0.347048 0.224818 0.000000
0.377776 0.220944 0.000000
0.411287 0.216035 0.000000
0.447847 0.209766 0.000000
0.487735 0.201678 0.000000
0.531242 0.191096 0.000000
0.578667 0.176959 0.000000
0.630304 0.157399 0.000000
0.686440 0.128376 0.000000
0.747340 0.075059 0.000000
0.813231 0.000000 0.000000
0.884217 0.000000 0.000000
0.960213 0.000000 0.000000
1.000000 0.000000 0.000000
1.000000 0.000000 0.000000
0.000000 0.261929 0.000000
0.000000 0.261906 0.000000
0.000000 0.261835 0.000000
0.000000 0.261715 0.000000
0.000000 0.261543 0.000000
0.000000 0.261316 0.000000
0.000000 0.261027 0.000000
0.000000 0.260672 0.000000
0.000000 0.260244 0.000000
0.000000 0.259712 0.000000
0.080730 0.258799 0.000000
0.132761 0.257749 0.000000
0.170584 0.256554 0.000000
0.202945 0.255202 0.000000
0.232336 0.253682 0.000000
0.259859 0.251982 0.000000
0.286106 0.250089 0.000000
0.312873 0.247864 0.000000
0.341841 0.245090 0.000000
0.373250 0.241615 0.000000
0.407352 0.237237 0.000000
0.444419 0.231685 0.000000
0.484733 0.224587 0.000000
0.528591 0.215416 0.000000
0.576294 0.203394 0.000000
0.628143 0.187278 0.000000
0.684429 0.164829 0.000000
0.745421 0.130929 0.000000
0.811355 0.062348 0.000000
0.882415 0.000000 0.000000
0.958571 0.000000 0.000000
1.000000 0.000000 0.000000
1.000000 0.000000 0.000000
0.000000 0.280503 0.000000
0.000000 0.280480 0.000000
0.000000 0.280411 0.000000
0.000000 0.280294 0.000000
0.000000 0.280126 0.000000
0.000000 0.279906 0.000000
0.000000 0.279627 0.000000
0.000000 0.279287 0.000000
0.000000 0.278878 0.000000
0.000000 0.278396 0.000000
0.000000 0.277686 0.000000
0.106962 0.276704 0.000000
0.153050 0.275589 0.000000
0.189401 0.274333 0.000000
0.221267 0.272926 0.000000
0.250515 0.271358 0.000000
0.278047 0.269618 0.000000
0.305863 0.267579 0.000000
0.335748 0.265047 0.000000
0.367954 0.261889 0.000000
0.402746 0.257928 0.000000
0.440403 0.252932 0.000000
0.481217 0.246589 0.000000
0.525488 0.238469 0.000000
0.573525 0.227957 0.000000
0.625632 0.214137 0.000000
0.682107 0.195512 0.000000
0.743226 0.169278 0.000000
0.809231 0.128447 0.000000
0.880312 0.000000 0.000000
0.956594 0.000000 0.000000
1.000000 0.000000 0.000000
1.000000 0.000000 0.000000
0.000000 0.300137 0.000000
0.000000 0.300115 0.000000
0.000000 0.300046 0.000000
0.000000 0.299931 0.000000
0.000000 0.299768 0.000000
0.000000 0.299553 0.000000
0.000000 0.299283 0.000000
0.000000 0.298954 0.000000
0.000000 0.298561 0.000000
0.000000 0.298100 0.000000
0.000000 0.297564 0.000000
0.060614 0.296683 0.000000
0.128704 0.295638 0.000000
0.171749 0.294464 0.000000
0.207233 0.293154 0.000000
0.238837 0.291698 0.000000
0.268056 0.290088 0.000000
0.297217 0.288208 0.000000
0.328254 0.285881 0.000000
0.361449 0.282990 0.000000
0.397091 0.279380 0.000000
0.435474 0.274849 0.000000
0.476901 0.269131 0.000000
0.521683 0.261863 0.000000
0.570135 0.252546 0.000000
0.622570 0.240465 0.000000
0.679292 0.224529 0.000000
0.740584 0.202919 0.000000
0.806695 0.172058 0.000000
0.877826 0.121911 0.000000
0.954110 0.000000 0.000000
1.000000 0.000000 0.000000
1.000000 0.000000 0.000000
0.000000 0.322001 0.000000
0.000000 0.321979 0.000000
0.000000 0.321912 0.000000
0.000000 0.321798 0.000000
0.000000 0.321637 0.000000
0.000000 0.321427 0.000000
0.000000 0.321164 0.000000
0.000000 0.320844 0.000000
0.000000 0.320465 0.000000
0.000000 0.320022 0.000000
0.000000 0.319510 0.000000
0.000000 0.318879 0.000000
0.087304 0.317895 0.000000
0.146217 0.316795 0.000000
0.187973 0.315570 0.000000
0.223205 0.314215 0.000000
0.254865 0.312722 0.000000
0.285897 0.310983 0.000000
0.318494 0.308839 0.000000
0.353006 0.306186 0.000000
0.389764 0.302886 0.000000
0.429094 0.298766 0.000000
0.471319 0.293593 0.000000
0.516766 0.287062 0.000000
0.565763 0.278758 0.000000
0.618633 0.268108 0.000000
0.675690 0.254280 0.000000
0.737225 0.235995 0.000000
0.803499 0.211063 0.000000
0.874720 0.174951 0.000000
0.951034 0.113079 0.000000
1.000000 0.000000 0.000000
1.000000 0.000000 0.000000
0.000000 0.346249 0.000000
0.000000 0.346227 0.000000
0.000000 0.346160 0.000000
0.000000 0.346048 0.000000
0.000000 0.345889 0.000000
0.000000 0.345682 0.000000
0.000000 0.345424 0.000000
0.000000 0.345112 0.000000
0.000000 0.344744 0.000000
0.000000 0.344315 0.000000
0.000000 0.343822 0.000000
0.000000 0.343261 0.000000
0.000000 0.342514 0.000000
0.104151 0.341478 0.000000
0.160129 0.340330 0.000000
0.201677 0.339063 0.000000
0.237137 0.337672 0.000000
0.270903 0.336057 0.000000
0.305689 0.334074 0.000000
0.341996 0.331629 0.000000
0.380246 0.328602 0.000000
0.420823 0.324839 0.000000
0.464094 0.320140 0.000000
0.510411 0.314243 0.000000
0.560123 0.306799 0.000000
0.613570 0.297337 0.000000
0.671078 0.285203 0.000000
0.732951 0.269443 0.000000
0.799461 0.248567 0.000000
0.870830 0.219965 0.000000
0.947216 0.177950 0.000000
1.000000 0.100942 0.000000
1.000000 0.000000 0.000000
0.000000 0.373028 0.000000
0.000000 0.373006 0.000000
0.000000 0.372940 0.000000
0.000000 0.372828 0.000000
0.000000 0.372671 0.000000
0.000000 0.372465 0.000000
0.000000 0.372211 0.000000
0.000000 0.371905 0.000000
0.000000 0.371544 0.000000
0.000000 0.371126 0.000000
0.000000 0.370648 0.000000
0.000000 0.370106 0.000000
0.000000 0.369497 0.000000
0.000000 0.368662 0.000000
0.114365 0.367580 0.000000
0.170364 0.366389 0.000000
0.212574 0.365086 0.000000
0.250671 0.363580 0.000000
0.288695 0.361736 0.000000
0.327536 0.359471 0.000000
0.367829 0.356679 0.000000
0.410082 0.353225 0.000000
0.454736 0.348933 0.000000
0.502198 0.343577 0.000000
0.552851 0.336861 0.000000
0.607060 0.328393 0.000000
0.665171 0.317639 0.000000
0.727508 0.303859 0.000000
0.794354 0.285968 0.000000
0.865950 0.262251 0.000000
0.942469 0.229632 0.000000
1.000000 0.181049 0.000000
1.000000 0.110365 0.000000
0.000000 0.402475 0.000000
0.000000 0.402453 0.000000
0.000000 0.402387 0.000000
0.000000 0.402275 0.000000
0.000000 0.402118 0.000000
0.000000 0.401914 0.000000
0.000000 0.401661 0.000000
0.000000 0.401358 0.000000
0.000000 0.401003 0.000000
0.000000 0.400593 0.000000
0.000000 0.400125 0.000000
0.000000 0.399598 0.000000
0.000000 0.399008 0.000000
0.000000 0.398351 0.000000
0.000000 0.397458 0.000000
0.117912 0.396333 0.000000
0.176389 0.395105 0.000000
0.222439 0.393690 0.000000
0.265689 0.391965 0.000000
0.308320 0.389854 0.000000
0.351519 0.387263 0.000000
0.396078 0.384071 0.000000
0.442597 0.380126 0.000000
0.491581 0.375230 0.000000
0.543478 0.369128 0.000000
0.598696 0.361488 0.000000
0.657614 0.351868 0.000000
0.720578 0.339674 0.000000
0.787895 0.324075 0.000000
0.859825 0.303846 0.000000
0.936561 0.277036 0.000000
1.000000 0.240057 0.000000
1.000000 0.195419 0.000000
0.000000 0.434709 0.000000
0.000000 0.434687 0.000000
0.000000 0.434620 0.000000
0.000000 0.434508 0.000000
0.000000 0.434350 0.000000
0.000000 0.434146 0.000000
0.000000 0.433893 0.000000
0.000000 0.433592 0.000000
0.000000 0.433239 0.000000
0.000000 0.432834 0.000000
0.000000 0.432374 0.000000
0.000000 0.431856 0.000000
0.000000 0.431279 0.000000
0.000000 0.430640 0.000000
0.000000 0.429937 0.000000
0.000000 0.429017 0.000000
0.112956 0.427852 0.000000
0.180160 0.426514 0.000000
0.233390 0.424888 0.000000
0.282253 0.422907 0.000000
0.329842 0.420484 0.000000
0.377700 0.417515 0.000000
0.426799 0.413861 0.000000
0.477843 0.409352 0.000000
0.531401 0.403764 0.000000
0.587961 0.396814 0.000000
0.647953 0.388129 0.000000
0.711763 0.377219 0.000000
0.779729 0.363424 0.000000
0.852135 0.345819 0.000000
0.929202 0.323039 0.000000
1.000000 0.292884 0.000000
1.000000 0.258342 0.000000
0.000000 0.469823 0.000000
0.000000 0.469801 0.000000
0.000000 0.469733 0.000000
0.000000 0.469620 0.000000
0.000000 0.469461 0.000000
0.000000 0.469256 0.000000
0.000000 0.469002 0.000000
0.000000 0.468700 0.000000
0.000000 0.468348 0.000000
0.000000 0.467945 0.000000
0.000000 0.467488 0.000000
0.000000 0.466976 0.000000
0.000000 0.466408 0.000000
0.000000 0.465781 0.000000
0.000000 0.465092 0.000000
0.000000 0.464341 0.000000
0.000000 0.463428 0.000000
0.100424 0.462154 0.000000
0.184231 0.460610 0.000000
0.245473 0.458735 0.000000
0.300407 0.456453 0.000000
0.353297 0.453668 0.000000
0.406109 0.450258 0.000000
0.460014 0.446070 0.000000
0.515830 0.440911 0.000000
0.574189 0.434532 0.000000
0.635618 0.426617 0.000000
0.700565 0.416754 0.000000
0.769414 0.404402 0.000000
0.842488 0.388833 0.000000
0.920039 0.369028 0.000000
1.000000 0.343481 0.000000
1.000000 0.314623 0.000000
0.000000 0.507878 0.000000
0.000000 0.507855 0.000000
0.000000 0.507786 0.000000
0.000000 0.507672 0.000000
0.000000 0.507511 0.000000
0.000000 0.507303 0.000000
0.000000 0.507048 0.000000
0.000000 0.506744 0.000000
0.000000 0.506391 0.000000
0.000000 0.505987 0.000000
0.000000 0.505531 0.000000
0.000000 0.505022 0.000000
0.000000 0.504457 0.000000
0.000000 0.503837 0.000000
0.000000 0.503158 0.000000
0.000000 0.502420 0.000000
0.000000 0.501620 0.000000
0.000000 0.500678 0.000000
0.081673 0.499202 0.000000
0.188612 0.497415 0.000000
0.258718 0.495248 0.000000
0.320168 0.492614 0.000000
0.378691 0.489405 0.000000
0.436739 0.485483 0.000000
0.495703 0.480677 0.000000
0.556518 0.474771 0.000000
0.619884 0.467489 0.000000
0.686360 0.458481 0.000000
0.756406 0.447295 0.000000
0.830400 0.433336 0.000000
0.908641 0.415811 0.000000
0.991340 0.393610 0.000000
1.000000 0.368415 0.000000
0.000000 0.548889 0.000000
0.000000 0.548866 0.000000
0.000000 0.548797 0.000000
0.000000 0.548680 0.000000
0.000000 0.548517 0.000000
0.000000 0.548307 0.000000
0.000000 0.548049 0.000000
0.000000 0.547742 0.000000
0.000000 0.547386 0.000000
0.000000 0.546979 0.000000
0.000000 0.546522 0.000000
0.000000 0.546012 0.000000
0.000000 0.545449 0.000000
0.000000 0.544831 0.000000
0.000000 0.544158 0.000000
0.000000 0.543427 0.000000
0.000000 0.542637 0.000000
0.000000 0.541737 0.000000
0.000000 0.540651 0.000000
0.047026 0.538980 0.000000
0.193313 0.536907 0.000000
0.273134 0.534397 0.000000
0.341524 0.531352 0.000000
0.405994 0.527649 0.000000
0.469542 0.523134 0.000000
0.533797 0.517616 0.000000
0.599816 0.510855 0.000000
0.668364 0.502546 0.000000
0.740031 0.492306 0.000000
0.815282 0.479639 0.000000
0.894483 0.463904 0.000000
0.977903 0.444239 0.000000
1.000000 0.421558 0.000000
0.000000 0.592823 0.000000
0.000000 0.592799 0.000000
0.000000 0.592729 0.000000
0.000000 0.592611 0.000000
0.000000 0.592445 0.000000
0.000000 0.592232 0.000000
0.000000 0.591970 0.000000
0.000000 0.591660 0.000000
0.000000 0.591300 0.000000
0.000000 0.590890 0.000000
0.000000 0.590430 0.000000
0.000000 0.589918 0.000000
0.000000 0.589354 0.000000
0.000000 0.588736 0.000000
0.000000 0.588064 0.000000
0.000000 0.587337 0.000000
0.000000 0.586554 0.000000
0.000000 0.585662 0.000000
0.000000 0.584591 0.000000
0.000000 0.583300 0.000000
0.000000 0.581420 0.000000
0.198336 0.579012 0.000000
0.288707 0.576102 0.000000
0.364431 0.572578 0.000000
0.435137 0.568303 0.000000
0.504425 0.563105 0.000000
0.574176 0.556772 0.000000
0.645575 0.549038 0.000000
0.719448 0.539570 0.000000
