packages/tools/karos-video/engine/hlg709_N.cube
TITLE "HLG->BT709 natural"
LUT_3D_SIZE 5
0.000000 0.000000 0.000000
0.148759 0.000000 0.000000
0.315748 0.000000 0.000000
0.585867 0.000000 0.000000
1.000000 0.000000 0.000000
0.000000 0.133124 0.000000
0.132625 0.128604 0.000000
0.314631 0.100253 0.000000
0.585778 0.000000 0.000000
1.000000 0.000000 0.000000
0.000000 0.280503 0.000000
0.000000 0.278878 0.000000
0.278047 0.269618 0.000000
0.573525 0.227957 0.000000
1.000000 0.000000 0.000000
0.000000 0.507878 0.000000
0.000000 0.506391 0.000000
0.000000 0.501620 0.000000
0.495703 0.480677 0.000000
1.000000 0.368415 0.000000
0.000000 0.908863 0.000000
0.000000 0.907351 0.000000
0.000000 0.902813 0.000000
0.000000 0.889610 0.000000
0.853947 0.828062 0.000000
0.000000 0.000000 0.109296
0.148132 0.000000 0.124780
0.315496 0.000000 0.129805
0.585601 0.000000 0.105431
1.000000 0.000000 0.000000
0.000000 0.133272 0.126916
0.128464 0.128457 0.128451
0.313615 0.099315 0.126005
0.585330 0.000000 0.097179
1.000000 0.000000 0.000000
0.000000 0.280582 0.097991
0.000000 0.278901 0.097570
0.275922 0.269552 0.085760
0.572754 0.227659 0.000000
1.000000 0.000000 0.000000
0.000000 0.507865 0.000000
0.000000 0.506368 0.000000
0.000000 0.501568 0.000000
0.494461 0.480590 0.000000
1.000000 0.368174 0.000000
0.000000 0.908673 0.000000
0.000000 0.907161 0.000000
0.000000 0.902623 0.000000
0.000000 0.889420 0.000000
0.853248 0.827893 0.000000
0.000000 0.000000 0.232671
0.142907 0.000000 0.247586
0.314114 0.000000 0.264597
0.584622 0.000000 0.272789
1.000000 0.000000 0.230793
0.000000 0.133093 0.257630
0.113749 0.127558 0.262563
0.310166 0.095944 0.270199
0.583809 0.000000 0.273044
1.000000 0.000000 0.226351
0.000000 0.280501 0.267122
0.000000 0.278644 0.268458
0.269010 0.268997 0.268983
0.570211 0.226198 0.263229
1.000000 0.000000 0.211905
0.000000 0.507453 0.224888
0.000000 0.505925 0.224643
0.000000 0.501044 0.223803
0.490351 0.479960 0.207933
1.000000 0.367065 0.113290
0.000000 0.908101 0.000000
0.000000 0.906589 0.000000
0.000000 0.902051 0.000000
0.000000 0.888850 0.000000
0.851149 0.827388 0.000000
0.000000 0.000000 0.436317
0.108666 0.000000 0.447303
0.306233 0.000000 0.467037
0.580862 0.000000 0.489294
1.000000 0.000000 0.486617
0.000000 0.129662 0.458471
0.000000 0.122937 0.464700
0.297743 0.084026 0.477026
0.578682 0.000000 0.492594
1.000000 0.000000 0.484855
0.000000 0.279673 0.482688
0.000000 0.277386 0.484967
0.246717 0.267033 0.489521
0.562399 0.221733 0.494461
1.000000 0.000000 0.478953
0.000000 0.506086 0.481949
0.000000 0.504469 0.482150
0.000000 0.499348 0.482568
0.477954 0.477931 0.477907
1.000000 0.363310 0.447707
0.000000 0.905937 0.338427
0.000000 0.904426 0.337951
0.000000 0.899890 0.336524
0.000000 0.886701 0.332379
0.844573 0.825445 0.288037
0.000000 0.000000 0.890275
0.000000 0.000000 0.895919
0.235910 0.000000 0.909274
0.555452 0.000000 0.931227
1.000000 0.000000 0.940429
0.000000 0.090208 0.902935
0.000000 0.074666 0.907329
0.213402 0.000000 0.917951
0.549576 0.000000 0.935261
1.000000 0.000000 0.939237
0.000000 0.270257 0.925128
0.000000 0.266824 0.927386
0.073450 0.255059 0.933054
0.525124 0.200499 0.941489
1.000000 0.000000 0.934938
0.000000 0.499093 0.938418
0.000000 0.497194 0.938668
0.000000 0.491301 0.939179
0.422443 0.468953 0.937365
1.000000 0.347638 0.914109
0.000000 0.897103 0.854317
0.000000 0.895593 0.853693
0.000000 0.891061 0.851824
0.000000 0.877905 0.846410
0.817405 0.817364 0.817323
